icons/feed-rocket-16.svg

<svg xmlns="http://www.w3.org/2000/svg" width="16" height="16" viewBox="0 0 16 16"><path d="M8 16A8 8 0 118 0a8 8 0 010 16zm3.031-12a4.38 4.38 0 00-3.097 1.283l-.23.229c-.156.157-.308.32-.452.49H5.65a.876.876 0 00-.746.417l-.856 1.388a.377.377 0 00.21.556l1.552.477 1.35 1.35.478 1.553a.374.374 0 00.555.21l1.389-.855a.876.876 0 00.416-.746V8.747c.17-.144.333-.295.49-.452l.23-.23A4.379 4.379 0 0012 4.969v-.093A.876.876 0 0011.124 4zm-5.107 7.144h-.001a.809.809 0 00-1.33-.881c-.395.394-.564 1.258-.62 1.62a.12.12 0 00.035.108.12.12 0 00.108.035c.362-.056 1.226-.225 1.62-.619a.803.803 0 00.188-.263z"/></svg>

<svg xmlns="http://www.w3.org/2000/svg" width="16" height="16" viewBox="0 0 16 16">
  <defs/>
  <path d="M8,16 C3.582,16 0,12.418 0,8 C0,3.582 3.582,0 8,0 C12.418,0 16,3.582 16,8 C16,12.418 12.418,16 8,16 Z M11.031,4 C9.869,4 8.755,4.462 7.934,5.283 L7.704,5.512 C7.548,5.669 7.396,5.832 7.252,6.002 L5.65,6.002 C5.346,6.002 5.063,6.16 4.904,6.419 L4.048,7.807 C3.987,7.906 3.975,8.028 4.016,8.137 C4.057,8.246 4.147,8.329 4.258,8.363 L5.81,8.84 L7.16,10.19 L7.638,11.743 C7.672,11.854 7.755,11.943 7.864,11.984 C7.973,12.025 8.094,12.014 8.193,11.953 L9.582,11.098 C9.841,10.938 9.998,10.656 9.998,10.352 L9.998,8.747 C10.168,8.603 10.331,8.452 10.488,8.295 L10.718,8.065 C11.539,7.244 12,6.13 12,4.969 L12,4.876 C12,4.392 11.608,4 11.124,4 Z M5.924,11.144 L5.923,11.144 C6.086,10.783 5.964,10.356 5.633,10.137 C5.302,9.918 4.862,9.972 4.593,10.263 C4.198,10.657 4.029,11.521 3.973,11.883 C3.966,11.923 3.979,11.963 4.008,11.991 C4.036,12.02 4.076,12.033 4.116,12.026 C4.478,11.97 5.342,11.801 5.736,11.407 C5.816,11.333 5.88,11.243 5.924,11.144 Z"/>
</svg>
